resources/icons/select-all.svg

<svg xmlns="http://www.w3.org/2000/svg" width="16" height="16" viewBox="0 0 16 16"><g id="Select_L"><path d="M11.5,14.125h-7A2.6281,2.6281,0,0,1,1.875,11.5v-7A2.6281,2.6281,0,0,1,4.5,1.875h7A2.6281,2.6281,0,0,1,14.125,4.5v7A2.6281,2.6281,0,0,1,11.5,14.125Zm-7-11A1.377,1.377,0,0,0,3.125,4.5v7A1.377,1.377,0,0,0,4.5,12.875h7A1.377,1.377,0,0,0,12.875,11.5v-7A1.377,1.377,0,0,0,11.5,3.125Z"/></g></svg>

<?xml version="1.0" encoding="utf-8"?>
<!-- Generator: Adobe Illustrator 25.0.1, SVG Export Plug-In . SVG Version: 6.00 Build 0)  -->
<svg version="1.1" id="Layer_1" xmlns="http://www.w3.org/2000/svg" xmlns:xlink="http://www.w3.org/1999/xlink" x="0px" y="0px"
	 viewBox="0 0 16 16" style="enable-background:new 0 0 16 16;" xml:space="preserve">
<path d="M11.5,14.1h-7c-1.4,0-2.6-1.2-2.6-2.6v-7c0-1.4,1.2-2.6,2.6-2.6h7c1.4,0,2.6,1.2,2.6,2.6v7C14.1,12.9,12.9,14.1,11.5,14.1z
	 M4.5,3.1c-0.8,0-1.4,0.6-1.4,1.4v7c0,0.8,0.6,1.4,1.4,1.4h7c0.8,0,1.4-0.6,1.4-1.4v-7c0-0.8-0.6-1.4-1.4-1.4H4.5z"/>
</svg>
